src/pos-icons/silo.svg

<svg height="24" viewBox="0 0 24 24" width="24" xmlns="http://www.w3.org/2000/svg"><path d="m8.5 2c3.35 0 6.1 2.53 6.46 5.78l7.04 4.22v2l-2-1.2v9.2h-2v-10.4l-3-1.8v12.2h-2v-13h-9v13h-2v-13.5a6.5 6.5 0 0 1 6.5-6.5m0 2c-1.96 0-3.63 1.25-4.24 3h8.48c-.61-1.75-2.28-3-4.24-3m-2.5 7h5v2h-5zm0 4h5v2h-5zm0 4h5v2h-5z"/></svg>

<?xml version="1.0" encoding="UTF-8"?><!DOCTYPE svg PUBLIC "-//W3C//DTD SVG 1.1//EN" "http://www.w3.org/Graphics/SVG/1.1/DTD/svg11.dtd"><svg xmlns="http://www.w3.org/2000/svg" xmlns:xlink="http://www.w3.org/1999/xlink" version="1.1" id="mdi-silo" width="24" height="24" viewBox="0 0 24 24"><path d="M8.5,2C11.85,2 14.6,4.53 14.96,7.78L22,12V14L20,12.8V22H18V11.6L15,9.8V22H13V9H4V22H2V8.5A6.5,6.5 0 0,1 8.5,2M8.5,4C6.54,4 4.87,5.25 4.26,7H12.74C12.13,5.25 10.46,4 8.5,4M6,11H11V13H6V11M6,15H11V17H6V15M6,19H11V21H6V19Z" /></svg>
